build/images/svg/FractureGroup.svg

<svg fill="none" xmlns="http://www.w3.org/2000/svg">
<ellipse cx="1158.98" cy="61.5" rx="4.50188" ry="4.5" stroke="white"/>
<path d="M1154.98 62H534.724L512.715 40H281.619L259.609 61.6" stroke="white"/>
<ellipse cx="256.607" cy="64.5" rx="4.50188" ry="4.5" stroke="white"/>
<ellipse cx="75.5303" cy="2.5" rx="2.50104" ry="2.5" fill="white"/>
<path d="M20.7247 81.5V82H20.4994L20.3502 81.8312L20.7247 81.5ZM1.14862 61.7757L0.80249 62.1365L0.650452 61.9907L0.648621 61.78L1.14862 61.7757ZM1.14862 2.5L0.648682 2.49194L0.656616 2H1.14862V2.5ZM260.608 81.5L260.961 81.8536L260.815 82H260.608V81.5ZM285.618 56.5L285.265 56.1464L285.411 56H285.618V56.5ZM102.542 82H20.7247V81H102.542V82ZM20.3502 81.8312C17.6013 78.723 12.7191 73.8033 8.51398 69.6515C6.41354 67.5776 4.4855 65.6987 3.08252 64.3382C2.38107 63.658 1.81094 63.1075 1.41623 62.727C1.21887 62.5368 1.06537 62.3891 0.961243 62.289C0.90918 62.239 0.869476 62.2008 0.842773 62.1752C0.829437 62.1624 0.819336 62.1527 0.812622 62.1462C0.809235 62.143 0.806702 62.1405 0.805023 62.1389C0.804169 62.1381 0.803528 62.1375 0.803131 62.1371C0.802917 62.1369 0.802765 62.1368 0.802643 62.1367C0.802551 62.1366 0.80249 62.1365 1.14862 61.7757C1.49472 61.4148 1.49478 61.4149 1.4949 61.415C1.495 61.4151 1.49518 61.4153 1.49539 61.4155C1.49582 61.4159 1.49646 61.4165 1.49734 61.4173C1.49905 61.419 1.50162 61.4214 1.50504 61.4247C1.51184 61.4312 1.522 61.441 1.5354 61.4539C1.56223 61.4796 1.60208 61.5179 1.6543 61.5681C1.75873 61.6685 1.91254 61.8165 2.1102 62.007C2.50555 62.3881 3.07642 62.9393 3.77869 63.6203C5.18317 64.9823 7.11346 66.8634 9.21658 68.9399C13.4186 73.0888 18.3245 78.0313 21.0992 81.1688L20.3502 81.8312ZM1.14862 61.7757C0.648621 61.78 0.648621 61.7799 0.648621 61.7796C0.648621 61.7793 0.648621 61.7788 0.648621 61.7782C0.64859 61.7771 0.64859 61.7753 0.64856 61.773C0.648529 61.7683 0.648468 61.7613 0.648376 61.752C0.648224 61.7334 0.64798 61.7056 0.647675 61.6688C0.647064 61.5952 0.646149 61.4858 0.644958 61.3422C0.642578 61.055 0.63916 60.6311 0.634888 60.0842C0.626404 58.9903 0.614624 57.4046 0.601532 55.4369C0.575378 51.5015 0.544006 46.0381 0.523071 39.9256C0.481232 27.7019 0.481201 12.8787 0.648682 2.49194L1.64856 2.50806C1.48126 12.8841 1.48123 27.6987 1.52307 39.9222C1.54398 46.0333 1.57538 51.4957 1.60153 55.4303C1.61459 57.3976 1.62637 58.9829 1.63486 60.0764C1.6391 60.6231 1.64255 61.0469 1.64493 61.334C1.64609 61.4775 1.64703 61.5868 1.64764 61.6603C1.64795 61.697 1.64819 61.7248 1.64835 61.7434C1.64844 61.7527 1.6485 61.7597 1.64853 61.7643C1.64856 61.7667 1.64856 61.7684 1.64859 61.7696C1.64859 61.7702 1.64859 61.7706 1.64859 61.7709C1.64859 61.7712 1.64859 61.7713 1.14862 61.7757ZM1.14862 2H73.0298V3H1.14862V2ZM102.542 81H260.608V82H102.542V81ZM260.255 81.1464L285.265 56.1464L285.972 56.8536L260.961 81.8536L260.255 81.1464ZM285.618 56H381.158V57H285.618V56Z" fill="white"/>
<path d="M13.3593 80.6464L14.2133 81.5H13.0059H2.00127H1.50127V81V70V68.7932L2.35475 69.6464L13.3593 80.6464Z" fill="white" stroke="white"/>
<path d="M375.156 62.0002C375.596 60.0935 377.357 56.7202 382.199 56.7202" stroke="white" stroke-width="0.88"/>
<path d="M375.156 50.9998C375.596 52.9065 377.357 56.2798 382.199 56.2798" stroke="white" stroke-width="0.88"/>
</svg>

<svg fill="none" xmlns="http://www.w3.org/2000/svg"><ellipse cx="1158.98" cy="61.5" rx="4.502" ry="4.5" stroke="#fff"/><path d="M1154.98 62H534.724l-22.009-22H281.619l-22.01 21.6" stroke="#fff"/><ellipse cx="256.607" cy="64.5" rx="4.502" ry="4.5" stroke="#fff"/><ellipse cx="75.53" cy="2.5" rx="2.501" ry="2.5" fill="#fff"/><path d="M20.725 81.5v.5h-.226l-.149-.169.375-.331zM1.149 61.776l-.347.36-.152-.145-.001-.211.5-.004zm0-59.276l-.5-.008L.657 2h.492v.5zm259.459 79l.353.354-.146.146h-.207v-.5zm25.01-25l-.353-.354.146-.146h.207v.5zM102.542 82H20.725v-1h81.817v1zm-82.192-.169c-2.749-3.108-7.63-8.028-11.836-12.18A856.87 856.87 0 00.961 62.29l-.118-.114a11.381 11.381 0 01-.03-.029l-.008-.007-.002-.002.346-.361.346-.361.002.002.008.008.03.029a107.689 107.689 0 01.575.553 860.433 860.433 0 017.106 6.933c4.203 4.149 9.109 9.091 11.883 12.229l-.749.662zM1.15 61.776l-.5.004v-.028l-.001-.083-.003-.327a2755.989 2755.989 0 01-.043-5.905c-.028-3.935-.059-9.399-.08-15.511C.481 27.702.481 12.879.65 2.492l1 .016c-.168 10.376-.168 25.19-.126 37.414a4878.428 4878.428 0 00.122 21.412l.003.326v.11l-.5.006zM1.149 2h71.88v1H1.15V2zm101.393 79h158.066v1H102.542v-1zm157.713.146l25.01-25 .707.708-25.011 25-.706-.708zM285.618 56h95.54v1h-95.54v-1z" fill="#fff"/><path d="M13.36 80.646l.853.854H1.501V68.793l.854.853 11.004 11z" fill="#fff" stroke="#fff"/><path d="M375.156 62c.44-1.907 2.201-5.28 7.043-5.28M375.156 51c.44 1.907 2.201 5.28 7.043 5.28" stroke="#fff" stroke-width=".88"/></svg>
